!!!!SEGMENT: pl-kc--40102-iii-1-saf--001-005_zielenski-mikolaj--offertoria-totius-anni-in-festo-s-ioannis-apostoli-iustus-ut-palma-florebit.krn
!!!cenid: 16xx:1484
!!!COM: Zieleński, Mikołaj
!!!COM-rismID: pe30013481
!!!CDT: <1611->1611
!!!CNT: Polish
!!!GTL: Offertoria totius anni
!!!OTL: In festo S. Ioannis Apostoli/Iustus ut palma florebit
!!!OMV: 005
!!!PDT: 1611
!!!AGN:
!!!YEC: Copyright 2022 Narodowy Instytut Fryderyka Chopina (https://polishscores.org)
!!!YEM: License CC-BY-4.0 (https://creativecommons.org/licenses/by/4.0)
!!!SMS-siglum: PL-Kc
!!!SMS-shelfmark: 40102 III/1 Saf.
!!!SMS-shelfwork: 001-005 G
!!!SMS-variant:
!!!SMS-altvar:
!!!NIFC-rismSourceID: 990069886
!!!NIFC-rismChildID: 990069886
!!!NIFC-islandoraID: none
!!!URL-pdf-islandora:
!!!URL-scan: https://cyfrowe.mnk.pl/dlibra/publication/24235/edition/23926/content?ref=desc @EN{Scan on The National Museum in Krakow Website} @PL{Skany w portalu Biblioteka Cyfrowa Muzeum Narodowego w Krakowie}
!!!IIIF:
!!!ONB-nifc: UWAGA: str. 8. Uwaga: W xml metrum 2/1 do źródłowego C| i odpowiednio 3/1 do 3/2
!!!AIN: 4 organ
!!!key: a
**kern	**kern	**kern	**kern
*group1	*group1	*group1	*group1
*part4	*part3	*part2	*part1
*staff4	*staff3	*staff2	*staff1
*I""Organo	*I""Organo	*I""Organo	*I""Organo
*I''org	*I''org	*I''org	*I''org
*Iorgan	*Iorgan	*Iorgan	*Iorgan
*ICklav	*ICklav	*ICklav	*ICklav
*clefF4	*clefC4	*clefC3	*clefG2
*k[]	*k[]	*k[]	*k[]
*a:	*a:	*a:	*a:
*M2/1	*M2/1	*M2/1	*M2/1
*met(C|)	*met(C|)	*met(C|)	*met(C|)
=1	=1	=1	=1
!	!	!LO:TX:a:t=Iuſtus ut palma florebit.	!LO:TX:a:t=In feſto S. Ioannis Apoſtoli, & Euangeliſtae. A 7.
00r	00r	0r	1ee
.	.	.	1.ee
=2-	=2-	=2-	=2-
.	.	1a	.
.	.	.	2a/
.	.	[y1a	2.cc\
.	.	.	4dd\
=3	=3	=3	=3
!	!	!LO:N:xstem:cue:vis=4	!
00r	0r	2a\]	4ee\
.	.	.	4dd\
.	.	2d\	1ff
.	.	2.f\	.
.	.	.	4ee\
.	.	4g\	4dd\
=4-	=4-	=4-	=4-
.	1r	2a\	4cc\
.	.	.	4a/
.	.	2.b\	2.dd\
.	1e	.	.
.	.	4a\	4cc\
.	.	[y2a\	4cc\
.	.	.	8b/
.	.	.	8a/
=5	=5	=5	=5
!	!	!LO:N:xstem:cue	!
1r	1.e	4a\]	2b/
.	.	8g#X\	.
.	.	8f\	.
.	.	2g#\	2b/
1A	.	1a	2.cc\
.	2A/	.	.
.	.	.	4dd\
=6-	=6-	=6-	=6-
1.A	2.c\	1e	4ee\
.	.	.	4dd\
.	.	.	4cc\
.	4d\	.	4b/
.	2e\	1a	4cc\
.	.	.	4a/
2D/	[y2d\	.	[y2ff\
=7	=7	=7	=7
!	!LO:N:xstem:cue	!	!LO:N:xstem:cue
2.F\	4d\]	1a	4ff\]
.	4c\	.	4ee\
.	2f\	.	2.dd\
4G\	.	.	.
1A	1e	1a	.
.	.	.	8cc#X\
.	.	.	8b\
.	.	.	2cc#\
=8-	=8-	=8-	=8-
2.D/	2f\	2.a\	1dd
.	2d\	.	.
4E\	.	4g\	.
2F\	2.d\	2.f\	2a/
2D/	.	.	[y2f/
.	8c\	4e\	.
.	8B\	.	.
=9	=9	=9	=9
!	!	!	!LO:N:xstem:cue
1F	2A/	2d\	4f/]
.	.	.	4g/
.	2.A/	2c/	4a/
.	.	.	4b/
1E	.	1e	2cc\
.	8G#X/	.	.
.	8F/	.	.
.	4G#/	.	4b/
.	4A/	.	4a/
=10-	=10-	=10-	=10-
1.E	4B\	2.e\	4g#X/
.	4Gny/	.	4e/
.	2c\	.	2a/
.	.	4f\	.
.	2B\	2g#X\	1ee
2AA/	[y2A/	2a\	.
=11	=11	=11	=11
!	!LO:N:xstem:cue	!	!
2.C/	4A/]	2e\	1.ee
.	8G/	.	.
.	8F/	.	.
.	4E/	2a\	.
4D/	4F/	.	.
2E\	2G/	2g\	.
1F\	2A/	1c\	2a/
=12-	=12-	=12-	=12-
.	1.A	.	2.cc\
4E\	.	2f\	.
4D/	.	.	4dd\
4C/	.	2e\	2ee\
!LO:N:acc=#	!	!	!
8BBn/	.	.	.
8C/	.	.	.
[>2D/	2A/	[<2f\	4dd\
.	.	.	4ee\
=13	=13	=13	=13
2D/]	1A	2f\]	4ff\
.	.	.	4dd\
2AA/	.	2e\	2.ee\
1D	2.A/	1f	.
.	.	.	8dd\
.	.	.	8cc\
.	.	.	2dd\
.	4B\	.	.
=14-	=14-	=14-	=14-
1AA	2c\	2e\	2ee\
.	2A/	2.e\	2.cc\
1F	1A	.	.
.	.	8d\	4b/
.	.	8c\	.
.	.	2d\	[y2a/
=15	=15	=15	=15
!	!	!	!LO:N:xstem:cue
1E	1B	1e	4a/]
.	.	.	8g#X/
.	.	.	8f/
.	.	.	2g#/
2A\	1.c	1.e	1.a
4c\	.	.	.
4B\	.	.	.
=16-	=16-	=16-	=16-
4A\	.	.	.
4G\	.	.	.
1F	2c\	2A/	2a/
.	1d	1f	[1a
4E\	.	.	.
4D/	.	.	.
=17	=17	=17	=17
2C#X/	1A	2e\	2a/]
2.D/	.	2f\	2d/
.	1.A	1f	2.a/
4E\	.	.	.
4F\	.	.	.
4G\	.	.	4b/
=18-	=18-	=18-	=18-
4A\	.	1.e	2cc\
4AA/	.	.	.
4BB/	1A	.	2ee\
4Cny/	.	.	.
1D	.	.	[y1ee
.	2G#X/	2B/	.
=19	=19	=19	=19
!	!	!	!LO:N:xstem:cue:vis=4
2AA/	1.A	4e\	2ee]
.	.	4d\	.
1F	.	4c/	2a/
.	.	4B/	.
.	.	2A/	2.cc\
4E\	2A/	2f\	.
4D/	.	.	4dd\
=20-	=20-	=20-	=20-
2C#X/	2.A/	2e\	4ee\
.	.	.	8dd\
.	.	.	8ee\
2D/	.	2d\	2ff\
.	4B\	.	.
2A\	2c\	2e\	2.ee\
2E\	4B\	[<2g\	.
.	4A/	.	4ff\
*custos:E	*custos:B	*custos:g	*custos:gg
!!LO:LB:g=original
=21	=21	=21	=21
1.E	1.B	2g]	4gg\
.	.	.	4ff\
.	.	2g\	4ee\
.	.	.	4dd\
.	.	1.g	2ee\
2BB/	2d\	.	2dd\
=22-	=22-	=22-	=22-
2.C/	2e\	.	2cc\
.	4d\	2e\	4b/
4D\	4c\	.	4a/
2.E\	4B\	1e	2g/
.	4G/	.	.
.	2c\	.	[y2gg\
4F\	.	.	.
=23	=23	=23	=23
!	!	!	!LO:N:xstem:cue
2G\	2B\	2d\	4gg\]
.	.	.	4ff\
2C/	2c\	2g\	2ee\
2BB/	2d\	0g	2dd\
2C/	2e\	.	2.cc\
=24-	=24-	=24-	=24-
1GG	1d	.	.
.	.	.	8b/
.	.	.	8a/
.	.	.	2b/
1C	1c	2.e\	2cc\
.	.	.	2ee\
.	.	4c/	.
=25	=25	=25	=25
1r	1r	2F/	2ff\
.	.	2G/	2dd\
2r	2r	1A	1cc#X
2AA/	2c#X\	.	.
=26-	=26-	=26-	=26-
2D/	2d\	1r	1r
2BB-X/	2d\	.	.
1AA	1c#X	2r	2r
.	.	4r	2ee\
.	.	4A/	.
=27	=27	=27	=27
0r	0r	2d\	2ff\
.	.	2B-X/	2dd\
.	.	4A/	4cc#X\
.	.	4A/	4ee\
.	.	4F/	4ff\
.	.	4D/	4ff\
=28-	=28-	=28-	=28-
4r	4r	4.A/	4.ee\
4AA/	4e\	.	.
.	.	8A/	8ee\
2D/	2f\	2D/	2dd\
2BB-X/	2d\	1r	1r
4AA/	4c#X\	.	.
4A\	4e\	.	.
=29	=29	=29	=29
4E\	4f\	2r	2r
4D/	4f\	.	.
4.A\	4.e\	4r	4r
.	.	4c#X/	4ee\
8A\	8e\	.	.
2D/	2d\	2d\	2ff\
2r	2r	2B-X/	2gg\
=30-	=30-	=30-	=30-
1r	1r	4A/	4aa\
.	.	4a\	4ee\
.	.	4f\	4ff\
.	.	4d\	4ff\
4r	4r	4.a\	4.ee\
4A\	4e\	.	.
.	.	8a\	8ee\
4F\	4f\	2a\	2dd\
4D/	4f\	.	.
=31	=31	=31	=31
4.A\	4.e\	4r	4r
.	.	4a\	4ee\
8A\	8e\	.	.
2D/	2d\	4f\	4ff\
.	.	4d\	4ff\
4r	4r	4.a\	4.ee\
4A\	4e\	.	.
.	.	8a\	8ee\
4F\	4f\	2a\	2dd\
4D/	4f\	.	.
=32-	=32-	=32-	=32-
4.A\	4.e\	4r	4r
.	.	4a\	4ee\
8A\	8e\	.	.
2D/	2d\	4f\	4ff\
.	.	4d\	4ff\
4r	4r	4.a\	4.ee\
!	!LO:N:acc=#	!	!
4AA/	4en\	.	.
.	.	8a\	8ee\
4D/	4f\	2a\	2dd\
4D/	4f\	.	.
=33	=33	=33	=33
4.BB/	4.g\	4r	4r
.	.	4d\	4dd\
8BB/	8g\	.	.
2GG/	2g\	4d\	4gg\
.	.	4d\	4gg\
4r	4r	4.c/	4.ee\
4C/	4g\	.	.
.	.	8c/	8ee\
4F\	4f\	2c/	2cc\
4F\	4f\	.	.
=34-	=34-	=34-	=34-
2.D/	2.f\	4r	4r
.	.	4f\	4dd\
.	.	4a\	4ff\
4D/	4d\	4a\	4ff\
2AA/	[y1e	4.a\	4.ee\
.	.	8a\	8ee\
2E\	.	4.g\	4ee\
.	.	.	4b/
.	.	8f\	.
=35	=35	=35	=35
!	!LO:N:xstem:cue:vis=4	!	!
2C/	2e\]	4e\	4cc\
.	.	4e\	4cc\
2AA/	2c\	4e\	2.ee\
.	.	4e\	.
1.E	2B\	1.e	.
.	.	.	4dd\
.	2A\	.	2cc\
=36-	=36-	=36-	=36-
.	1B	.	1b
2E\	.	2B/	.
1AA	1c	2.e\	2a/
.	.	.	2ee\
.	.	4c/	.
=37	=37	=37	=37
1r	1r	2F/	2ff\
.	.	2G/	2dd\
2r	2r	1A	1cc#X
2AA/	2c#X\	.	.
=38-	=38-	=38-	=38-
2D/	2d\	1r	1r
2BB-X/	2d\	.	.
1AA	1c#X	2r	2r
.	.	4r	2ee\
.	.	4A/	.
=39	=39	=39	=39
0r	0r	2d\	2ff\
!	!	!LO:N:vis=2.	!
.	.	2B-X/	2dd\
.	.	4A/	4cc#X\
.	.	4A/	4ee\
.	.	4F/	4ff\
.	.	4D/	4ff\
=40-	=40-	=40-	=40-
4r	4r	4.A/	4.ee\
4AA/	4e\	.	.
.	.	8A/	8ee\
2D/	2f\	2D/	2dd\
2BB-X/	2d\	1r	1r
4AA/	4c#X\	.	.
4A\	4e\	.	.
=41	=41	=41	=41
4F\	4f\	2r	2r
4D/	4f\	.	.
4.A\	4.e\	4r	4r
.	.	4c#X/	4ee\
8A\	8e\	.	.
2D/	2d\	2d\	4ff\
.	.	.	2gg\
2r	2r	2B-X/	.
.	.	.	2aa\
=42-	=42-	=42-	=42-
1r	1r	4A/	.
.	.	4a\	4ee\
.	.	4f\	4ff\
.	.	4d\	4ff\
*custos:A	*custos:d	*custos:a	*custos:ee
!!LO:LB:g=original
4r	4r	4.a\	4.ee\
4A\	4e\	.	.
.	.	8a\	8ee\
4F\	4f\	2a\	2dd\
4D/	4f\	.	.
=43	=43	=43	=43
4.A\	4.e\	4r	4r
.	.	4a\	4ee\
8A\	8e\	.	.
2D/	2d\	4f\	4ff\
.	.	4d\	4ff\
4r	4r	4.a\	4.ee\
4A\	4e\	.	.
.	.	8a\	8ee\
4F\	4f\	2a\	2dd\
4D/	4f\	.	.
=44-	=44-	=44-	=44-
4.A\	4.e\	4r	4r
.	.	4a\	4ee\
8A\	8e\	.	.
2D/	2d\	4f\	4ff\
.	.	4d\	4ff\
4r	4r	4.a\	4.ee\
4AA/	4e\	.	.
.	.	8a\	8ee\
4D/	4f#X\	2a\	2dd\
4D/	4f#\	.	.
=45	=45	=45	=45
4.BB/	4.g\	4r	4r
.	.	4d\	4dd\
8BB/	8g\	.	.
2GG/	2g\	4d\	4gg\
.	.	4d\	4gg\
4r	4r	4.c/	4.ee\
4C/	4g\	.	.
.	.	8c/	8ee\
4F\	4f\	2c/	4r
4F\	4f\	.	2cc\
=46-	=46-	=46-	=46-
2.D/	2.f\	4r	.
.	.	4f\	4dd\
.	.	4a\	4ff\
4D/	4d\	4a\	4ff\
2AA/	[y1e	4.a\	4.ee\
.	.	8a\	8ee\
2E\	.	4.g\	4ee\
.	.	.	4b/
.	.	8f\	.
=47	=47	=47	=47
!	!LO:N:xstem:cue:vis=4	!	!
2C/	2e\]	4e\	4cc\
.	.	4e\	4cc\
2AA/	2c\	4e\	2.ee\
.	.	4e\	.
1.E	2B\	1.e	.
.	.	.	4dd\
.	2A/	.	2cc\
=48-	=48-	=48-	=48-
.	1B	.	1b
2E\	.	2B/	.
2.AA/	2.e\	2.c#X/	2a/
.	.	.	2ee\
4A\	4c#X\	4e\	.
=49	=49	=49	=49
2F\	2d\	4d\	2ff\
.	.	4e\	.
2D/	2d\	4f\	2ff\
.	.	4g\	.
2.AA/	2e\	2a\	2.ee\
.	2A/	2e\	.
4AA/	.	.	4ee\
=50-	=50-	=50-	=50-
2D/	1.A	2f\	2dd\
2D/	.	4d\	2aa\
.	.	4e\	.
2D/	.	4f\	2aa\
.	.	4d\	.
2C#X/	2A/	2e\	2ee\
=51	=51	=51	=51
1.D	0A	2A/	2.ff\
.	.	2a\	.
.	.	.	4ee\
.	.	2.f\	4dd\
.	.	.	4a/
2D/	.	.	2ff\
.	.	4g\	.
=52-	=52-	=52-	=52-
0AAl	0Al	0al	0eel
==	==	==	==
*-	*-	*-	*-
!!!system-decoration: *
!!!RDF**kern: > = above
!!!RDF**kern: < = below
!!!RDF**kern: l = terminal long
!!!ENC: Andrzej Gręziak
!!!END: 2021-12-14
!!!ENC: Andrzej Kubiczek
!!!END: 2021-12-18
